X: 7
T: Jenny Lind
R: polka
M: 2/4
L: 1/8
K: Dmaj
FA GB | Af f/e/f | Ge e/d/e | Fd dA/G/ |FA GB | Af f/e/f | ge e/g/f/e/ | df d :|gg/f/ e/f/g/e/ | dB B/A/B | =cA A/G/A | BG G2 |gg/f/ e/f/g/e/ | dB B/A/B | =cA A/c/B/A/ | GB G :|


Tune 4883	Setting 17310

